dist/assets/img/main/deal/1.svg

<svg width="480" height="480" viewBox="0 0 480 480" fill="none" xmlns="http://www.w3.org/2000/svg">
<path d="M372.766 285.846C364.012 290.753 355.6 295.571 346.99 300.007C341.818 302.672 336.805 311.934 338.167 317.586C339.589 323.488 341.049 329.384 342.655 335.238C344.368 341.482 346.622 347.717 339.875 352.434C351.581 355.711 362.774 358.376 373.644 362.009C386.439 366.287 399.185 370.878 411.531 376.294C425.766 382.539 439.685 389.557 453.473 396.753C466.314 403.454 475.355 413.646 478.962 428.035C479.4 429.781 479.55 431.639 479.557 433.446C479.607 445.778 479.585 458.111 479.583 470.443C479.581 478.132 477.723 479.943 469.844 479.943C339.689 479.944 209.534 479.944 79.3784 479.944C55.8805 479.944 32.3825 479.95 8.88457 479.939C2.98324 479.937 0.430458 477.428 0.422218 471.62C0.404976 459.455 0.371093 447.289 0.428519 435.124C0.501281 419.709 7.53719 407.745 20.5641 400.348C44.571 386.716 69.297 374.375 95.5827 365.616C110.033 360.801 124.703 356.644 139.306 352.18C134.763 347.158 135.6 340.894 137.821 334.188C139.722 328.45 140.996 322.463 142.007 316.495C142.398 314.186 142.012 311.162 140.769 309.251C128.677 290.656 119.588 270.86 115.511 248.928C115.34 248.004 114.724 247.163 114.472 246.62C102.217 249.269 90.1197 251.583 78.5927 245.599C69.2387 240.743 63.7663 233.116 63.962 221.777C64.3011 202.118 64.3854 182.441 63.9342 162.787C63.6581 150.76 73.8601 139.65 83.9812 137.662C87.841 136.904 88.3503 135.089 88.4462 131.951C89.0954 110.697 94.2852 90.4356 103.796 71.573C121.387 36.6866 150.12 15.8054 187.756 6.18613C211.9 0.0153842 236.461 -0.252969 260.862 1.24066C289.139 2.97152 316.16 10.3873 339.489 27.721C353.062 37.8055 364.156 50.0997 372.648 64.7763C382.192 81.2703 387.325 99.2319 390.551 117.815C391.395 122.677 391.464 127.685 391.707 132.635C391.844 135.421 392.38 136.955 395.766 137.595C407.376 139.788 415.938 150.675 415.942 162.478C415.949 181.143 415.238 199.843 416.153 218.463C416.982 235.318 406.709 245.959 391.963 249.324C390.23 263.696 383.899 275.848 372.766 285.846ZM332.246 98.4149C325.602 91.0935 319.604 83.0285 312.197 76.5836C284.845 52.7841 252.698 44.833 217.488 51.7827C192.904 56.6349 172.225 69.1878 155.637 88.4976C137.805 109.257 129.446 133.397 128.993 160.277C128.618 182.555 128.843 204.884 129.99 227.129C130.577 238.522 132.677 250.11 135.981 261.039C145.998 294.173 166.293 320.008 195.534 338.305C214.961 350.462 236.276 354.547 259.018 348.998C273.742 345.406 286.595 338.15 298.448 329.082C305.988 323.312 312.964 316.806 317.83 308.049C308.135 309.258 298.876 310.938 289.552 311.452C275.946 312.202 262.294 312.17 248.661 312.359C243.024 312.438 239.556 309.362 239.234 304.38C238.954 300.052 243.12 295.868 248.175 295.635C262.247 294.987 276.389 295.075 290.378 293.645C304.029 292.251 317.532 289.387 331.074 287.017C332.255 286.81 333.65 285.71 334.254 284.636C345.399 264.796 350.516 243.158 351.062 220.703C351.62 197.784 350.728 174.823 350.22 151.885C349.791 132.51 342.988 115.161 332.246 98.4149ZM411.062 394.238C404.207 391.419 397.387 388.515 390.492 385.799C371.783 378.431 352.796 371.943 332.835 368.904C331.02 368.628 328.335 369.683 327.069 371.056C324.068 374.31 321.658 378.113 319.045 381.72C306.961 398.404 294.877 415.088 282.842 431.808C282.128 432.8 281.247 434.215 281.447 435.237C283.254 444.489 285.284 453.697 287.19 462.642C345.913 462.642 404.137 462.642 462.688 462.642C462.688 452.655 463.361 442.955 462.478 433.398C461.75 425.523 458.03 418.244 450.679 414.308C437.856 407.441 424.715 401.168 411.062 394.238ZM173.109 398.427C165.975 388.548 158.841 378.668 151.516 368.525C142.699 370.363 133.939 371.776 125.406 374.042C92.3371 382.827 61.7985 397.732 31.6423 413.481C25.0684 416.914 19.5544 422.085 18.6503 429.52C17.3219 440.444 17.4404 451.544 16.9323 462.795C76.2622 462.795 134.518 462.795 192.802 462.795C194.547 454.791 196.138 446.925 198.014 439.129C198.925 435.347 198.13 432.438 195.754 429.306C188.187 419.329 180.959 409.094 173.109 398.427ZM143.63 76.1623C147.894 71.9481 151.887 67.4096 156.468 63.5735C181.973 42.2157 211.081 31.2488 244.711 32.7361C260.406 33.4302 275.41 36.2009 289.822 42.5883C325.164 58.2508 349.027 84.4017 361.778 120.756C363.878 126.743 365.239 132.988 366.947 139.136C369.795 138.265 372.257 137.512 375.55 136.504C374.323 127.723 373.328 119.082 371.874 110.52C368.897 92.9921 362.181 76.8439 351.551 62.6915C339.015 46.0024 322.072 35.0594 302.543 27.8922C273.114 17.0908 242.913 16.0507 212.119 19.5868C193.969 21.671 177.02 26.9888 160.936 35.3653C147.833 42.1892 136.727 51.5397 128 63.421C118.008 77.0248 111.642 92.3835 108.47 108.926C106.715 118.08 105.833 127.401 104.565 136.592C108.197 137.628 110.693 138.34 111.987 138.709C116.814 126.349 120.794 113.917 126.479 102.32C130.934 93.2316 137.498 85.1772 143.63 76.1623ZM368.164 180.501C368.164 193.481 368.127 206.462 368.178 219.442C368.207 226.549 371.296 230.628 377.04 230.95C381.188 231.182 385.369 231.182 389.516 230.944C394.9 230.636 398.027 227.293 398.041 221.943C398.093 202.14 398.087 182.336 398.046 162.532C398.034 156.796 394.543 153.402 388.725 153.298C385.564 153.241 382.402 153.285 379.24 153.288C371.653 153.295 368.394 156.381 368.19 164.025C368.053 169.18 368.164 174.342 368.164 180.501ZM108.518 156.132C103.853 151.185 97.8009 154.12 92.4111 153.28C85.5139 152.206 80.8286 156.757 80.9384 164.549C81.1636 180.536 81.3007 196.536 80.925 212.517C80.5309 229.287 82.7304 231.654 99.4496 231.042C107.525 230.746 110.986 227.593 110.991 219.63C111.002 201.307 111.072 182.984 110.909 164.663C110.885 162.006 109.712 159.359 108.518 156.132ZM226.329 369.709C224.75 368.724 223.279 367.159 221.576 366.844C203.538 363.503 187.507 355.903 173.324 344.381C167.625 339.752 162.168 334.825 156.523 329.968C155.921 332.378 155.651 334.355 154.932 336.153C153.201 340.482 154.426 344.075 157.047 347.618C166.447 360.326 175.756 373.102 185.091 385.858C191.951 395.232 198.797 404.617 206.13 414.654C212.97 399.436 219.493 384.924 226.329 369.709ZM278.653 408.144C279.505 406.94 280.342 405.725 281.21 404.532C295.471 384.936 309.78 365.375 323.92 345.692C325.144 343.989 325.876 341.448 325.739 339.368C325.54 336.354 324.341 333.406 323.351 329.593C303.706 349.589 281.263 363.95 253.055 367.907C260.046 383.596 266.847 398.86 273.94 414.78C275.779 412.213 277.017 410.485 278.653 408.144ZM215.87 440.862C214.119 448.05 212.368 455.237 210.566 462.635C230.5 462.635 249.664 462.635 269 462.635C267.509 455.232 266.093 448.207 264.592 440.761C248.676 440.761 232.739 440.761 215.87 440.862ZM257.041 420.476C251.561 407.895 246.08 395.314 240.038 381.444C233.517 396.267 227.578 409.767 221.384 423.845C233.308 423.845 244.108 423.907 254.904 423.728C255.77 423.714 256.608 422.045 257.041 420.476ZM364.399 270.902C366.992 266.729 369.963 262.739 372.091 258.342C375.401 251.502 374.583 249.738 368.136 246.875C367.423 246.559 366.686 246.296 365.779 245.937C362.834 256.044 359.98 265.84 356.803 276.741C359.75 274.512 361.81 272.954 364.399 270.902Z" fill="#1371C9"/>
</svg>

<svg width="480" height="480" fill="none" xmlns="http://www.w3.org/2000/svg"><path d="M372.766 285.846c-8.754 4.907-17.166 9.725-25.776 14.161-5.172 2.665-10.185 11.927-8.823 17.579 1.422 5.902 2.882 11.798 4.488 17.652 1.713 6.244 3.967 12.479-2.78 17.196 11.706 3.277 22.899 5.942 33.769 9.575 12.795 4.278 25.541 8.869 37.887 14.285 14.235 6.245 28.154 13.263 41.942 20.459 12.841 6.701 21.882 16.893 25.489 31.282.438 1.746.588 3.604.595 5.411.05 12.332.028 24.665.026 36.997-.002 7.689-1.86 9.5-9.739 9.5l-390.466.001c-23.498 0-46.995.006-70.493-.005-5.902-.002-8.455-2.511-8.463-8.319-.017-12.165-.05-24.331.007-36.496.072-15.415 7.108-27.379 20.135-34.776 24.007-13.632 48.733-25.973 75.019-34.732 14.45-4.815 29.12-8.972 43.723-13.436-4.543-5.022-3.706-11.286-1.485-17.992 1.901-5.738 3.175-11.725 4.186-17.693.391-2.309.005-5.333-1.238-7.244-12.092-18.595-21.181-38.391-25.258-60.323-.171-.924-.787-1.765-1.039-2.308-12.255 2.649-24.352 4.963-35.88-1.021-9.353-4.856-14.826-12.483-14.63-23.822.34-19.659.423-39.336-.028-58.99-.276-12.027 9.926-23.137 20.047-25.125 3.86-.758 4.37-2.573 4.465-5.711.65-21.254 5.84-41.515 15.35-60.378 17.591-34.886 46.324-55.768 83.96-65.387C211.9.016 236.461-.253 260.862 1.241c28.277 1.73 55.298 9.146 78.627 26.48 13.573 10.085 24.667 22.379 33.159 37.055 9.544 16.494 14.677 34.456 17.903 53.039.844 4.862.913 9.87 1.156 14.82.137 2.786.673 4.32 4.059 4.96 11.61 2.193 20.172 13.08 20.176 24.883.007 18.665-.704 37.365.211 55.985.829 16.855-9.444 27.496-24.19 30.861-1.733 14.372-8.064 26.524-19.197 36.522zm-40.52-187.431c-6.644-7.322-12.642-15.387-20.049-21.831-27.352-23.8-59.499-31.751-94.709-24.801-24.584 4.852-45.263 17.405-61.851 36.715-17.832 20.759-26.191 44.899-26.644 71.779-.375 22.278-.15 44.607.997 66.852.587 11.393 2.687 22.981 5.991 33.91 10.017 33.134 30.312 58.969 59.553 77.266 19.427 12.157 40.742 16.242 63.484 10.693 14.724-3.592 27.577-10.848 39.43-19.916 7.54-5.77 14.516-12.276 19.382-21.033-9.695 1.209-18.954 2.889-28.278 3.403-13.606.75-27.258.718-40.891.907-5.637.079-9.105-2.997-9.427-7.979-.28-4.328 3.886-8.512 8.941-8.745 14.072-.648 28.214-.56 42.203-1.99 13.651-1.394 27.154-4.258 40.696-6.628 1.181-.207 2.576-1.307 3.18-2.381 11.145-19.84 16.262-41.478 16.808-63.933.558-22.919-.334-45.88-.842-68.818-.429-19.375-7.232-36.724-17.974-53.47zm78.816 295.823c-6.855-2.819-13.675-5.723-20.57-8.439-18.709-7.368-37.696-13.856-57.657-16.895-1.815-.276-4.5.779-5.766 2.152-3.001 3.254-5.411 7.057-8.024 10.664-12.084 16.684-24.168 33.368-36.203 50.088-.714.992-1.595 2.407-1.395 3.429 1.807 9.252 3.837 18.46 5.743 27.405h175.498c0-9.987.673-19.687-.21-29.244-.728-7.875-4.448-15.154-11.799-19.09-12.823-6.867-25.964-13.14-39.617-20.07zm-237.953 4.189l-21.593-29.902c-8.817 1.838-17.577 3.251-26.11 5.517-33.069 8.785-63.608 23.69-93.764 39.439-6.574 3.433-12.088 8.604-12.992 16.039-1.328 10.924-1.21 22.024-1.718 33.275h175.87c1.745-8.004 3.336-15.87 5.212-23.666.911-3.782.116-6.691-2.26-9.823-7.567-9.977-14.795-20.212-22.645-30.879zM143.63 76.162c4.264-4.214 8.257-8.752 12.838-12.589 25.505-21.357 54.613-32.324 88.243-30.837 15.695.694 30.699 3.465 45.111 9.852 35.342 15.663 59.205 41.814 71.956 78.168 2.1 5.987 3.461 12.232 5.169 18.38l8.603-2.632c-1.227-8.781-2.222-17.422-3.676-25.984-2.977-17.528-9.693-33.676-20.323-47.828-12.536-16.69-29.479-27.633-49.008-34.8-29.429-10.801-59.63-11.841-90.424-8.305-18.15 2.084-35.099 7.402-51.183 15.778C147.833 42.19 136.727 51.54 128 63.421c-9.992 13.604-16.358 28.962-19.53 45.505-1.755 9.154-2.637 18.475-3.905 27.666l7.422 2.117c4.827-12.36 8.807-24.792 14.492-36.389 4.455-9.088 11.019-17.143 17.151-26.158zm224.534 104.339c0 12.98-.037 25.961.014 38.941.029 7.107 3.118 11.186 8.862 11.508 4.148.232 8.329.232 12.476-.006 5.384-.308 8.511-3.651 8.525-9.001.052-19.803.046-39.607.005-59.411-.012-5.736-3.503-9.13-9.321-9.234-3.161-.057-6.323-.013-9.485-.01-7.587.007-10.846 3.093-11.05 10.737-.137 5.155-.026 10.317-.026 16.476zm-259.646-24.369c-4.665-4.947-10.717-2.012-16.107-2.852-6.897-1.074-11.582 3.477-11.473 11.269.226 15.987.363 31.987-.013 47.968-.394 16.77 1.805 19.137 18.525 18.525 8.075-.296 11.536-3.449 11.541-11.412.011-18.323.081-36.646-.082-54.967-.024-2.657-1.197-5.304-2.391-8.531zm117.811 213.577c-1.579-.985-3.05-2.55-4.753-2.865-18.038-3.341-34.069-10.941-48.252-22.463-5.699-4.629-11.156-9.556-16.801-14.413-.602 2.41-.872 4.387-1.591 6.185-1.731 4.329-.506 7.922 2.115 11.465 9.4 12.708 18.709 25.484 28.044 38.24 6.86 9.374 13.706 18.759 21.039 28.796 6.84-15.218 13.363-29.73 20.199-44.945zm52.324 38.435c.852-1.204 1.689-2.419 2.557-3.612 14.261-19.596 28.57-39.157 42.71-58.84 1.224-1.703 1.956-4.244 1.819-6.324-.199-3.014-1.398-5.962-2.388-9.775-19.645 19.996-42.088 34.357-70.296 38.314l20.885 46.873c1.839-2.567 3.077-4.295 4.713-6.636zm-62.783 32.718l-5.304 21.773H269l-4.408-21.874c-15.916 0-31.853 0-48.722.101zm41.171-20.386l-17.003-39.032-18.654 42.401c11.924 0 22.724.062 33.52-.117.866-.014 1.704-1.683 2.137-3.252zm107.358-149.574c2.593-4.173 5.564-8.163 7.692-12.56 3.31-6.84 2.492-8.604-3.955-11.467-.713-.316-1.45-.579-2.357-.938l-8.976 30.804c2.947-2.229 5.007-3.787 7.596-5.839z" fill="#1371C9"/></svg>
